X: 38166
T: Sportsman's Haunt, The
R: strathspey
M: 4/4
K: Bminor
F|D<B, B>d B<F F>B|A<E E>D C<A, A,B,/C/|D<B, B>d B<F F>B|1 A>F E>C B,/B,/B, B,>F:|2 A>F E>C B,/B,/B, B,>f|
|:e/d/c/B/ f>B d>f b<f|a>f e<a c<A a>A|1 e/d/c/B/ f>B d>f b<f|a>f e>c B/B/B f2:|
[2 e/d/c/B/ f<d e>c d<B|A>F E>C B,/B,/B, B,||

